!!!COM: Gaspar van Weerbeke
!!!CDT: ~1450-~1517
!!!OTL: Adonay sanctissime Domine Deus
!!!AGN: Motet
!!!SCT: Gas0412
!!!SCA: Gas0412
!!!voices: 4
**kern	**text	**kern	**text	**kern	**text	**kern	**text
*part4	*part4	*part3	*part3	*part2	*part2	*part1	*part1
*staff4	*staff4	*staff3	*staff3	*staff2	*staff2	*staff1	*staff1
*I"Bassus	*	*I"Tenor	*	*I"Altus	*	*I"Superius	*
*I'B	*	*I'T	*	*I'A	*	*I'S	*
*clefF4	*	*clefGv2	*	*clefGv2	*	*clefG2	*
*k[b-]	*	*k[b-]	*	*k[b-]	*	*k[b-]	*
*M2/2	*	*M2/2	*	*M2/2	*	*M2/2	*
*met(C|)	*	*met(C|)	*	*met(C|)	*	*met(C|)	*
=1	=1	=1	=1	=1	=1	=1	=1
1r	.	1r	.	1G	A-	1r	.
=2	=2	=2	=2	=2	=2	=2	=2
1r	.	1r	.	2.B-y	-do-	1g	A-
.	.	.	.	4G	.	.	.
=3	=3	=3	=3	=3	=3	=3	=3
1r	.	1G	A-	2d	-na-	2.b-y	-do-
.	.	.	.	8dL	.	.	.
.	.	.	.	8c	.	.	.
.	.	.	.	8B-y	.	4g	.
.	.	.	.	8AJ	.	.	.
=4	=4	=4	=4	=4	=4	=4	=4
1G	A-	2.B-y	-do-	1G	-y,	2dd	-na-
.	.	.	.	.	.	8ddL	.
.	.	.	.	.	.	8cc	.
.	.	4G	.	.	.	8b-y	.
.	.	.	.	.	.	8aJ	.
=5	=5	=5	=5	=5	=5	=5	=5
2E-i	-do-	2B-y	-na-	2r	.	2.g	-y
*	*	*	*	*	*edit	*	*
2E-i	-na-	2c	.	2G	A-	.	.
.	.	.	.	.	.	8fL	.
.	.	.	.	.	.	8e-iJ	.
=6	=6	=6	=6	=6	=6	=6	=6
*	*	*	*	*	*	*lig	*
1D	-y	1d	-y	1A	-do-	1f	.
!!LO:LB:g=original
=7	=7	=7	=7	=7	=7	=7	=7
2r	.	2.d	san-	2G	-na-	1b-y	.
*	*	*	*	*	*	*Xlig	*
2G	san-	.	.	4d	.	.	.
.	.	4B-y	.	4e	.	.	.
=8	=8	=8	=8	=8	=8	=8	=8
2F	-ctis-	2c	-ctis-	2f	-y	2a	san-
4G	.	4B-y	.	4r	.	4g	.
*	*	*	*	*	*Xedit	*	*
[4F	.	4A	.	[4c	san-	[4a	-ctis-
=9	=9	=9	=9	=9	=9	=9	=9
8F]L	.	2c	.	4c]	.	8a]L	.
8E	.	.	.	.	.	8g	.
8D	.	.	.	2f	-ctis-	8f	.
8CJ	.	.	.	.	.	8eJ	.
4BB-y	.	2d	.	.	.	4d	.
4B-y	.	.	.	4d	.	4f	.
=10	=10	=10	=10	=10	=10	=10	=10
4G	.	4B-y	.	4e-i	.	4g	.
2F	.	4c	.	2f	.	2a	.
.	.	4d	.	.	.	.	.
4G	.	8cL	.	8e-iL	.	4b-y	.
.	.	8B-yJ	.	8dJ	.	.	.
=11	=11	=11	=11	=11	=11	=11	=11
4A	.	4A	.	4c	.	4cc	.
4F	.	2d	.	2.f	-si-	2a	.
4.D	.	.	.	.	.	.	.
.	.	8cL	.	.	.	4dd	.
8E	.	8B-yJ	.	.	.	.	.
=12	=12	=12	=12	=12	=12	=12	=12
2F	.	2A	.	2f	-me,	4cc	.
.	.	.	.	.	.	4a	.
4BB-y	.	4d	.	4r	.	4b-y	.
*	*	*	*	*	*edit	*	*
[4F	-si-	[4c	.	[4f	si-	[4a	.
!!LO:LB:g=original
=13	=13	=13	=13	=13	=13	=13	=13
8F]L	.	8c]L	.	8f]L	.	4a]	.
8GJ	.	8B-J	.	8e-Ji	.	.	.
4E-i	.	4G	.	4c	.	2g	.
2D	-me,	2A	-si-	2d	-me,	.	.
.	.	.	.	.	.	4f#i	-si-
=14	=14	=14	=14	=14	=14	=14	=14
2.E-X	Do-	1G	-me,	1r	.	1g	-me,
8DL	.	.	.	.	.	.	.
8CJ	.	.	.	.	.	.	.
=15	=15	=15	=15	=15	=15	=15	=15
6BB-y	.	1B-y	Do-	1r	.	1r	.
6C	.	.	.	.	.	.	.
6D	.	.	.	.	.	.	.
4.GG	-mi-	.	.	.	.	.	.
8AA	.	.	.	.	.	.	.
=16	=16	=16	=16	=16	=16	=16	=16
8BB-yL	.	2B-y	-mi-	1r	.	1r	.
8CJ	.	.	.	.	.	.	.
4D	.	.	.	.	.	.	.
4E-i	-ne	[2B-y	-ne	.	.	.	.
[4G	De-	.	.	.	.	.	.
=17	=17	=17	=17	=17	=17	=17	=17
4G]	.	4B-]	.	1r	.	1r	.
8FL	.	8AL	.	.	.	.	.
8E-jJ	.	8GJ	.	.	.	.	.
2F	-us,	2A	De-	.	.	.	.
=18	=18	=18	=18	=18	=18	=18	=18
4.B-y	Do-	2G	-us,	1r	.	1r	.
8A	.	.	.	.	.	.	.
8GL	.	[2B-y	Do-	.	.	.	.
8FJ	.	.	.	.	.	.	.
[4G	-mi-	.	.	.	.	.	.
!!LO:LB:g=original
=19	=19	=19	=19	=19	=19	=19	=19
4G]	.	2B-]	.	1r	.	1r	.
8FL	.	.	.	.	.	.	.
8E-iJ	.	.	.	.	.	.	.
4D	-ne	2B-y	-mi-	.	.	.	.
[4E-i	De-	.	.	.	.	.	.
=20	=20	=20	=20	=20	=20	=20	=20
4E-]	.	2.B-y	-ne	1r	.	1r	.
8DL	.	.	.	.	.	.	.
8CJ	.	.	.	.	.	.	.
8BB-yL	.	.	.	.	.	.	.
8C	.	.	.	.	.	.	.
8D	.	8AL	.	.	.	.	.
8EJ	.	8GJ	.	.	.	.	.
=21	=21	=21	=21	=21	=21	=21	=21
2F	-us	2A	De-	1r	.	1r	.
4r	.	4G	-us	.	.	.	.
[4G	o-	[4B-y	o-	.	.	.	.
=22	=22	=22	=22	=22	=22	=22	=22
4G]	.	4B-]	.	1r	.	1r	.
8FL	.	8AL	.	.	.	.	.
8EJ	.	8GJ	.	.	.	.	.
4F	-mni-	4A	-mni-	.	.	.	.
4G	.	4B-y	.	.	.	.	.
=23	=23	=23	=23	=23	=23	=23	=23
4B-y	.	4G	.	1r	.	1r	.
8AL	.	4B-y	.	.	.	.	.
8GJ	.	.	.	.	.	.	.
4F	.	4A	.	.	.	.	.
[4G	.	[4B-y	.	.	.	.	.
=24	=24	=24	=24	=24	=24	=24	=24
4G]	.	4B-]	.	1r	.	1r	.
8FL	.	8AL	.	.	.	.	.
8EJ	.	8GJ	.	.	.	.	.
4.D	-po-	2F	.	.	.	.	.
8E	.	.	.	.	.	.	.
!!LO:PB:g=original
=25	=25	=25	=25	=25	=25	=25	=25
8FL	.	8DL	-po-	1r	.	1r	.
8GJ	.	8E	.	.	.	.	.
4F	.	8F	.	.	.	.	.
.	.	8GJ	.	.	.	.	.
4D	.	8AL	.	.	.	.	.
.	.	8B-yJ	.	.	.	.	.
[4E-X	.	[4c	.	.	.	.	.
=26	=26	=26	=26	=26	=26	=26	=26
8E-]L	.	8c]L	.	1r	.	1r	.
8FJ	.	8dJ	.	.	.	.	.
4D	.	2B-y	.	.	.	.	.
2C	.	.	.	.	.	.	.
.	.	4A	.	.	.	.	.
=27	=27	=27	=27	=27	=27	=27	=27
*	*	*	*	*	*Xedit	*	*
1BB-y	-tens,	1B-y	-tens,	1f	ex-	1r	.
=28	=28	=28	=28	=28	=28	=28	=28
1BB-y	ex-	2r	.	2f	-au-	1b-y	ex-
.	.	2d	ex-	2f	-di	.	.
=29	=29	=29	=29	=29	=29	=29	=29
2BB-y	-au-	2d	-au-	2.f	pre-	2b-y	-au-
2BB-y	-di	2d	-di	.	.	2b-y	-di
.	.	.	.	4e	.	.	.
=30	=30	=30	=30	=30	=30	=30	=30
1BB-y	pre-	1d	pre-	4d	-ces	1b-y	pre-
.	.	.	.	4c	.	.	.
.	.	.	.	4B-y	ser-	.	.
.	.	.	.	8AL	.	.	.
.	.	.	.	8GJ	.	.	.
!!LO:LB:g=original
=31	=31	=31	=31	=31	=31	=31	=31
2F	-ces	2c	-ces	4F	-vo-	2a	-ces
.	.	.	.	4f	.	.	.
2G	ser-	2B-y	ser-	4.d	.	2g	ser-
.	.	.	.	8e	.	.	.
=32	=32	=32	=32	=32	=32	=32	=32
2F	-vo-	2A	-vo-	8fL	.	2a	-vo-
.	.	.	.	8e	.	.	.
.	.	.	.	8d	.	.	.
.	.	.	.	8cJ	.	.	.
2G	-rum	2d	-rum	2B-y	-rum	2b-y	-rum
=33	=33	=33	=33	=33	=33	=33	=33
2A	tu-	2c	tu-	2.A	tu-	2.cc	tu-
2F	-o-	4.A	-o-	.	.	.	.
.	.	.	.	4F	.	8b-yL	.
.	.	8B-y	.	.	.	8aJ	.
=34	=34	=34	=34	=34	=34	=34	=34
4E	.	4c	.	4G	-o-	4g	-o-
4D	.	4.d	.	2A	.	4f	.
2E	.	.	.	.	.	2g	.
.	.	16c#iLL	.	.	.	.	.
.	.	16BniJJ	.	.	.	.	.
.	.	4c#i	.	4G	.	.	.
=35	=35	=35	=35	=35	=35	=35	=35
1D	-rum,	1d	-rum,	2A	-rum,	1f	-rum,
.	.	.	.	4.d	et	.	.
.	.	.	.	8c	.	.	.
=36	=36	=36	=36	=36	=36	=36	=36
1r	.	1r	.	8B-yL	.	1b-y	et
.	.	.	.	8AJ	.	.	.
.	.	.	.	2G	da	.	.
.	.	.	.	8FL	.	.	.
.	.	.	.	8EJ	.	.	.
!!LO:LB:g=original
=37	=37	=37	=37	=37	=37	=37	=37
1r	.	1r	.	4D	no-	2b-y	da
.	.	.	.	8EL	.	.	.
.	.	.	.	8FJ	.	.	.
.	.	.	.	8GL	.	[2b-y	no-
.	.	.	.	8A	.	.	.
.	.	.	.	8B-y	.	.	.
.	.	.	.	8cJ	.	.	.
=38	=38	=38	=38	=38	=38	=38	=38
1r	.	1r	.	4d	.	4b-]	.
.	.	.	.	4e	.	8aL	.
.	.	.	.	.	.	8gJ	.
.	.	.	.	2f	-bis	2a	.
=39	=39	=39	=39	=39	=39	=39	=39
1r	.	1r	.	4r	.	2g	-bis
.	.	.	.	2g	lo-	.	.
.	.	.	.	.	.	2b-y	lo-
.	.	.	.	8fL	.	.	.
.	.	.	.	8eJ	.	.	.
=40	=40	=40	=40	=40	=40	=40	=40
1r	.	1r	.	8fL	.	4a	.
.	.	.	.	8e	.	.	.
.	.	.	.	8d	.	2b-y	.
.	.	.	.	8cJ	.	.	.
.	.	.	.	8B-yL	.	.	.
.	.	.	.	8c	.	.	.
.	.	.	.	8d	.	8aL	.
.	.	.	.	8eJ	.	8gJ	.
=41	=41	=41	=41	=41	=41	=41	=41
1r	.	1r	.	2f	.	2a	.
.	.	.	.	4e	-cum	4g	-cum
.	.	.	.	4d	pe-	4b-y	pe-
=42	=42	=42	=42	=42	=42	=42	=42
1r	.	1r	.	4c	-ni-	4a	-ni-
.	.	.	.	2d	-ten-	2b-y	-ten-
.	.	.	.	8cL	.	8aL	.
.	.	.	.	8B-yJ	.	8gJ	.
!!LO:LB:g=original
=43	=43	=43	=43	=43	=43	=43	=43
1r	.	1r	.	4A	.	2f	.
.	.	.	.	2f	.	.	.
.	.	.	.	.	.	4.d	.
.	.	.	.	8eL	.	.	.
.	.	.	.	8dJ	.	8e	.
=44	=44	=44	=44	=44	=44	=44	=44
1r	.	1r	.	4d	.	8fL	.
.	.	.	.	.	.	8g	.
.	.	.	.	8cL	.	8a	.
.	.	.	.	8B-yJ	.	8b-yJ	.
.	.	.	.	4A	.	4cc	.
.	.	.	.	[4f	.	[4dd	.
=45	=45	=45	=45	=45	=45	=45	=45
1r	.	1r	.	4f]	.	4dd]	.
.	.	.	.	8e-iL	.	2b-y	.
.	.	.	.	8dJ	.	.	.
.	.	.	.	2c	-ti-	.	.
.	.	.	.	.	.	4a	-ti-
=46	=46	=46	=46	=46	=46	=46	=46
2.BB-y	et	2.D	et	2B-y	-e;	2b-y	-e;
.	.	.	.	2r	.	2r	.
4C	.	4E	.	.	.	.	.
=47	=47	=47	=47	=47	=47	=47	=47
4D	ne	4F	ne	1r	.	1r	.
4E	.	4G	.	.	.	.	.
4F	clau-	4A	clau-	.	.	.	.
[4D	.	[4B-y	.	.	.	.	.
=48	=48	=48	=48	=48	=48	=48	=48
4D]	.	8B-]L	.	1r	.	1r	.
.	.	8AJ	.	.	.	.	.
8CL	.	2G	.	.	.	.	.
8BB-yJ	.	.	.	.	.	.	.
2AA	.	.	.	.	.	.	.
.	.	4F#i	.	.	.	.	.
!!LO:PB:g=original
=49	=49	=49	=49	=49	=49	=49	=49
2GG	-das	2G	-das	2.B-y	et	2.d	et
2r	.	2r	.	.	.	.	.
.	.	.	.	4c	.	4e	.
=50	=50	=50	=50	=50	=50	=50	=50
1r	.	1r	.	4d	ne	4f	ne
.	.	.	.	4e	.	4g	.
.	.	.	.	4f	clau-	4a	clau-
.	.	.	.	[4d	.	[4b-y	.
=51	=51	=51	=51	=51	=51	=51	=51
1r	.	1r	.	4d]	.	8b-]L	.
.	.	.	.	.	.	8aJ	.
.	.	.	.	8cL	.	2g	.
.	.	.	.	8B-yJ	.	.	.
.	.	.	.	2A	.	.	.
.	.	.	.	.	.	4f#i	.
=52	=52	=52	=52	=52	=52	=52	=52
4.G	o-	2.B-y	o-	2G	-das	2g	-das
8F	.	.	.	.	.	.	.
4D	.	.	.	2r	.	4r	.
[4E	-ra	8AL	.	.	.	[4g	o-
.	.	8GJ	.	.	.	.	.
=53	=53	=53	=53	=53	=53	=53	=53
4E]	.	2B-y	-ra	4.G	o-	4g]	.
8DL	.	.	.	.	.	8fL	.
8CJ	.	.	.	8A	.	8eJ	.
8BB-yL	.	4r	.	4B-y	-ra	8dL	.
8C	.	.	.	.	.	8e	.
8D	.	4B-y	ca-	[4F	ca-	8f	.
8EJ	.	.	.	.	.	8gJ	.
=54	=54	=54	=54	=54	=54	=54	=54
4.F	ca-	2.A	-nen-	8F]L	.	4.a	-ra
.	.	.	.	8G	.	.	.
.	.	.	.	8A	.	.	.
8E	.	.	.	8B-yJ	.	8g	.
4C	.	.	.	4c	.	4e	ca-
[4D	-nen-	8GL	.	4r	.	[4f	-nen-
.	.	8FJ	.	.	.	.	.
!!LO:LB:g=original
=55	=55	=55	=55	=55	=55	=55	=55
4D]	.	2A	.	4.F	-nen-	4f]	.
8CL	.	.	.	.	.	8eL	.
8BB-yJ	.	.	.	8G	.	8dJ	.
8AAL	.	4r	.	4A	-ti-	8cL	.
8BB-y	.	.	.	.	.	8d	.
8C	.	4A	-ti-	[4E	-um	8e	.
8DJ	.	.	.	.	.	8fJ	.
=56	=56	=56	=56	=56	=56	=56	=56
4.E	-ti-	2.G	-um	8E]L	.	4.g	-ti-
.	.	.	.	8F	.	.	.
.	.	.	.	8G	.	.	.
8D	.	.	.	8AJ	.	8f	.
4BB-y	-um	.	.	4B-y	.	4d	-um
[4C	te,	8FL	.	4r	.	[4e	te,
.	.	8EJ	.	.	.	.	.
=57	=57	=57	=57	=57	=57	=57	=57
4C]	.	2G	.	4.E	te,	4e]	.
8BB-yL	.	.	.	.	.	8dL	.
8AAJ	.	.	.	8F	.	8cJ	.
8GGL	.	4r	.	4G	.	8B-yL	.
8AA	.	.	.	.	.	8c	.
8BB-y	.	4G	te,	[4D	Do-	8d	.
8CJ	.	.	.	.	.	8eJ	.
=58	=58	=58	=58	=58	=58	=58	=58
*	*	*	*edit	*	*	*	*
4.D	Do-	2.F	Do	8D]L	.	4.f	Do-
.	.	.	.	8E	.	.	.
.	.	.	.	8F	.	.	.
8C	.	.	.	8GJ	.	8e	.
4AA	.	.	.	4A	.	4c	.
[4BB-y	-mi-	8EL	.	4F	-mi-	[4d	-mi-
.	.	8DJ	.	.	.	.	.
=59	=59	=59	=59	=59	=59	=59	=59
4BB-]	.	2F	.	2B-y	-ne,	4d]	.
8AAL	.	.	.	.	.	8cL	.
8GGJ	.	.	.	.	.	8B-yJ	.
2D	-ne,	4r	.	4r	.	2A	-ne,
*	*	*	*Xedit	*	*edit	*	*
.	.	4F	Do-	[4d	Do-	.	.
!!LO:LB:g=original
=60	=60	=60	=60	=60	=60	=60	=60
*	*edit	*	*	*	*	*	*edit
4GG	Do-	4.G	.	4d]	.	8GL	Do-
.	.	.	.	.	.	8A	.
4.G	.	.	.	2B-y	.	8B-y	.
.	.	8A	.	.	.	8cJ	.
.	.	4B-y	.	.	.	4d	.
8F	.	.	.	.	.	.	.
4E	.	4c	.	8AL	.	4e	.
.	.	.	.	8GJ	.	.	.
=61	=61	=61	=61	=61	=61	=61	=61
4D	.	4d	.	4A	.	4f	.
4G	.	4B-y	.	4G	.	4g	.
4F	.	4c	.	[2f	-mi-	4a	.
[4BB-y	-mi-	[4d	-mi-	.	.	[4b-y	-mi-
=62	=62	=62	=62	=62	=62	=62	=62
4BB-]	.	4d]	.	4f]	.	4b-]	.
4C	.	8cL	.	4e	.	8aL	.
.	.	8B-yJ	.	.	.	8gJ	.
2D	.	2A	.	2d	.	2f	.
=63	=63	=63	=63	=63	=63	=63	=63
*	*	*	*	*lig	*	*	*
1E-X	.	1G	.	2B-y	.	2.g	.
.	.	.	.	2c	.	.	.
*	*	*	*	*Xlig	*	*	*
.	.	.	.	.	.	8f#iL	.
.	.	.	.	.	.	8eJ	.
=64	=64	=64	=64	=64	=64	=64	=64
1D;	.	1A;	.	1d;	.	1f#i;	.
=65	=65	=65	=65	=65	=65	=65	=65
1GGl	-ne.	1Gl	-ne.	1dl	-ne.	1gl	-ne.
==	==	==	==	==	==	==	==
*-	*-	*-	*-	*-	*-	*-	*-
!!!system-decoration: [*]
!!!RDF**kern: j = editorial accidental, optional, paren up
!!!RDF**kern: i = editorial accidental
!!!RDF**kern: l = terminal breve
!!!PTL: Gaspar van Weerbeke: Collected Works. IV. Motets
!!!PPR: American Institute of Musicology
!!!PC#: Corpus Mensurabilis Musicae 106/IV
!!!PDT: 2010
!!!YEC: Copyright 2010, Pavanello, Agnese
!!!YEM: CC-BY-SA 4.0 (https://creativecommons.org/licenses/by-nc/4.0/legalcode)
!!!EED: Mair-Gruber, Roland
!!!EEV: 2021/08/19
